third_party/noto/noto_2/emoji_u1f493.svg

<svg enable-background="new 0 0 128 128" viewBox="0 0 128 128" xmlns="http://www.w3.org/2000/svg"><radialGradient id="a" cx="63.54" cy="12.506" r="70.502" gradientTransform="matrix(.9985 0 0 .9337 .0985 4.2468)" gradientUnits="userSpaceOnUse"><stop stop-color="#E53935" offset=".4748"/><stop stop-color="#C62828" offset="1"/></radialGradient><path d="m91.58 22.94c-20.14 0-27.54 24.08-27.54 24.08s-7.3-24.08-27.59-24.08c-15.24 0-32.62 12.08-26.2 39.54 6.42 27.45 53.59 61.52 53.59 61.52s0.24-0.1 0.24-0.25c0 0.15 0.16 0.23 0.16 0.23s47.09-34.04 53.51-61.5-10.93-39.54-26.17-39.54z" fill="url(#a)"/><g opacity=".2"><path d="m91.58 25.94c7.68 0 14.91 3.33 19.34 8.92 5.16 6.51 6.52 15.83 3.92 26.94-5.45 23.32-42.72 52.5-50.81 58.61-8.15-6.15-45.41-35.32-50.86-58.61-2.6-11.11-1.24-20.42 3.92-26.93 4.43-5.59 11.67-8.93 19.36-8.93 17.78 0 24.65 21.73 24.72 21.95l2.83 9.35 2.9-9.34c0.07-0.22 7.03-21.96 24.68-21.96m0-3c-20.14 0-27.54 24.08-27.54 24.08s-7.3-24.08-27.59-24.08c-15.24 0-32.62 12.08-26.2 39.54 6.42 27.45 53.59 61.52 53.59 61.52s0.24-0.1 0.24-0.25c0 0.15 0.16 0.23 0.16 0.23s47.09-34.04 53.51-61.5-10.93-39.54-26.17-39.54z" fill="#424242"/></g><g fill="#EF9A9A"><path d="m10.94 47.6c-0.01-0.05-0.02-0.09-0.03-0.14h0.01c0.01 0.04 0.02 0.09 0.02 0.14z"/><path d="m34.06 15.78c1.9 0.14 3.62 0.58 5.17 1.23 1.29 0.54 0.67 2.44-0.7 2.16-0.73-0.15-1.48-0.25-2.26-0.31-10.96-0.77-17.54 3.81-21.32 8.33-0.89 1.07-2.59-0.06-1.95-1.3 2.83-5.43 8.74-11.02 21.06-10.11z"/></g><g fill="#EF5350"><path d="m3.51 46.09c-0.01-0.06-0.02-0.12-0.03-0.17 0.01 0 0.01 0 0.02-0.01 0 0.06 0.01 0.12 0.01 0.18z"/><path d="m32.65 4.65c5.07 0.26 9.03 2.39 12.09 5.18 0.66 0.61-0.1 1.64-0.88 1.19-2.45-1.41-5.31-2.36-8.62-2.51-17.09-0.81-25.68 9.44-29.46 16.19-0.43 0.77-1.61 0.29-1.37-0.56 2.27-7.94 8.92-20.49 28.24-19.49z"/></g><g fill="#EF9A9A"><path d="m117.19 47.6c0.01-0.05 0.02-0.09 0.03-0.14h-0.01c-0.01 0.04-0.01 0.09-0.02 0.14z"/><path d="m94.07 15.78c-1.9 0.14-3.62 0.58-5.17 1.23-1.29 0.54-0.67 2.44 0.7 2.16 0.73-0.15 1.48-0.25 2.26-0.31 10.96-0.77 17.54 3.81 21.32 8.33 0.89 1.07 2.59-0.06 1.95-1.3-2.83-5.43-8.74-11.02-21.06-10.11z"/></g><g fill="#EF5350"><path d="m124.62 46.09c0.01-0.06 0.02-0.12 0.03-0.17-0.01 0-0.01 0-0.02-0.01 0 0.06 0 0.12-0.01 0.18z"/><path d="m95.48 4.65c-5.07 0.26-9.03 2.39-12.09 5.18-0.66 0.61 0.1 1.64 0.88 1.19 2.45-1.41 5.31-2.36 8.62-2.51 17.09-0.81 25.68 9.44 29.46 16.19 0.43 0.77 1.61 0.29 1.37-0.56-2.27-7.94-8.92-20.49-28.24-19.49z"/></g></svg>

<svg width="128" height="128" style="enable-background:new 0 0 128 128;" xmlns="http://www.w3.org/2000/svg" xmlns:xlink="http://www.w3.org/1999/xlink">
  <g id="图层_3">
    <g>
      <radialGradient id="SVGID_1_" cx="63.54" cy="12.506" gradientTransform="matrix(0.9985 0 0 0.9337 0.0985 4.2468)" gradientUnits="userSpaceOnUse" r="70.5017">
        <stop offset="0.4748" style="stop-color:#E53935"/>
        <stop offset="1" style="stop-color:#C62828"/>
      </radialGradient>
      <path d="M91.58,22.94c-20.14,0-27.54,24.08-27.54,24.08s-7.3-24.08-27.59-24.08 c-15.24,0-32.62,12.08-26.2,39.54C16.67,89.93,63.84,124,63.84,124s0.24-0.1,0.24-0.25c0,0.15,0.16,0.23,0.16,0.23 s47.09-34.04,53.51-61.5C124.17,35.02,106.82,22.94,91.58,22.94z" style="fill:url(#SVGID_1_);"/>
      <g style="opacity:0.2;">
        <path d="M91.58,25.94c7.68,0,14.91,3.33,19.34,8.92c5.16,6.51,6.52,15.83,3.92,26.94 c-5.45,23.32-42.72,52.5-50.81,58.61c-8.15-6.15-45.41-35.32-50.86-58.61c-2.6-11.11-1.24-20.42,3.92-26.93 c4.43-5.59,11.67-8.93,19.36-8.93c17.78,0,24.65,21.73,24.72,21.95L64,57.24l2.9-9.34C66.97,47.68,73.93,25.94,91.58,25.94 M91.58,22.94c-20.14,0-27.54,24.08-27.54,24.08s-7.3-24.08-27.59-24.08c-15.24,0-32.62,12.08-26.2,39.54 C16.67,89.93,63.84,124,63.84,124s0.24-0.1,0.24-0.25c0,0.15,0.16,0.23,0.16,0.23s47.09-34.04,53.51-61.5 C124.17,35.02,106.82,22.94,91.58,22.94L91.58,22.94z" style="fill:#424242;"/>
      </g>
    </g>
    <g>
      <path d="M10.94,47.6c-0.01-0.05-0.02-0.09-0.03-0.14c0,0,0.01,0,0.01,0C10.93,47.5,10.94,47.55,10.94,47.6z " style="fill:#EF9A9A;"/>
      <path d="M34.06,15.78c1.9,0.14,3.62,0.58,5.17,1.23c1.29,0.54,0.67,2.44-0.7,2.16 c-0.73-0.15-1.48-0.25-2.26-0.31c-10.96-0.77-17.54,3.81-21.32,8.33c-0.89,1.07-2.59-0.06-1.95-1.3 C15.83,20.46,21.74,14.87,34.06,15.78z" style="fill:#EF9A9A;"/>
    </g>
    <g>
      <path d="M3.51,46.09c-0.01-0.06-0.02-0.12-0.03-0.17c0.01,0,0.01,0,0.02-0.01 C3.5,45.97,3.51,46.03,3.51,46.09z" style="fill:#EF5350;"/>
      <path d="M32.65,4.65c5.07,0.26,9.03,2.39,12.09,5.18c0.66,0.61-0.1,1.64-0.88,1.19 c-2.45-1.41-5.31-2.36-8.62-2.51C18.15,7.7,9.56,17.95,5.78,24.7c-0.43,0.77-1.61,0.29-1.37-0.56C6.68,16.2,13.33,3.65,32.65,4.65 z" style="fill:#EF5350;"/>
    </g>
    <g>
      <path d="M117.19,47.6c0.01-0.05,0.02-0.09,0.03-0.14c0,0-0.01,0-0.01,0C117.2,47.5,117.2,47.55,117.19,47.6 z" style="fill:#EF9A9A;"/>
      <path d="M94.07,15.78c-1.9,0.14-3.62,0.58-5.17,1.23c-1.29,0.54-0.67,2.44,0.7,2.16 c0.73-0.15,1.48-0.25,2.26-0.31c10.96-0.77,17.54,3.81,21.32,8.33c0.89,1.07,2.59-0.06,1.95-1.3 C112.3,20.46,106.39,14.87,94.07,15.78z" style="fill:#EF9A9A;"/>
    </g>
    <g>
      <path d="M124.62,46.09c0.01-0.06,0.02-0.12,0.03-0.17c-0.01,0-0.01,0-0.02-0.01 C124.63,45.97,124.63,46.03,124.62,46.09z" style="fill:#EF5350;"/>
      <path d="M95.48,4.65c-5.07,0.26-9.03,2.39-12.09,5.18c-0.66,0.61,0.1,1.64,0.88,1.19 c2.45-1.41,5.31-2.36,8.62-2.51c17.09-0.81,25.68,9.44,29.46,16.19c0.43,0.77,1.61,0.29,1.37-0.56 C121.45,16.2,114.8,3.65,95.48,4.65z" style="fill:#EF5350;"/>
    </g>
  </g>
  <g id="Layer_2_x5F_复制" style="display:none;">
    <g style="display:inline;opacity:0.3;">
      <g style="opacity:0.6;">
        <circle cx="64" cy="64" r="28" style="opacity:0.61;fill:none;stroke:#000000;stroke-width:0.2625;stroke-miterlimit:10;"/>
        <line style="opacity:0.61;fill:none;stroke:#000000;stroke-width:0.25;stroke-miterlimit:10;" x1="84" x2="84" y1="0" y2="128"/>
        <line style="opacity:0.61;fill:none;stroke:#000000;stroke-width:0.25;stroke-miterlimit:10;" x1="44" x2="44" y1="0" y2="128"/>
        <line style="opacity:0.61;fill:none;stroke:#000000;stroke-width:0.25;stroke-miterlimit:10;" x1="64" x2="64" y1="0" y2="128"/>
        <line style="opacity:0.61;fill:none;stroke:#000000;stroke-width:0.25;stroke-miterlimit:10;" x1="128" x2="0" y1="64" y2="64"/>
        <line style="opacity:0.61;fill:none;stroke:#000000;stroke-width:0.25;stroke-miterlimit:10;" x1="128" x2="0" y1="44" y2="44"/>
        <line style="opacity:0.61;fill:none;stroke:#000000;stroke-width:0.25;stroke-miterlimit:10;" x1="128" x2="0" y1="83.75" y2="83.75"/>
        <line style="opacity:0.61;fill:none;stroke:#000000;stroke-width:0.25;stroke-miterlimit:10;" x1="128" x2="0" y1="128" y2="0"/>
        <line style="opacity:0.61;fill:none;stroke:#000000;stroke-width:0.25;stroke-miterlimit:10;" x1="0" x2="128" y1="128" y2="0"/>
        <g style="opacity:0.61;">
          <path d="M64,4.26c32.94,0,59.74,26.8,59.74,59.74S96.94,123.74,64,123.74S4.26,96.94,4.26,64S31.06,4.26,64,4.26 M64,4 C30.86,4,4,30.86,4,64c0,33.14,26.86,60,60,60c33.14,0,60-26.86,60-60C124,30.86,97.14,4,64,4L64,4z"/>
        </g>
        <path d="M107.97,115.97H20.03 c-4.42,0-8.03-3.61-8.03-8.03V20.03c0-4.42,3.61-8.03,8.03-8.03h87.94c4.42,0,8.03,3.61,8.03,8.03v87.91 C116,112.36,112.39,115.97,107.97,115.97z" style="opacity:0.61;fill:none;stroke:#000000;stroke-width:0.2578;stroke-miterlimit:10;"/>
        <path d="M99.75,124H28 c-4.4,0-8-3.6-8-8V12c0-4.4,3.6-8,8-8h71.75c4.4,0,8,3.6,8,8v104C107.75,120.4,104.15,124,99.75,124z" style="opacity:0.61;fill:none;stroke:#000000;stroke-width:0.2567;stroke-miterlimit:10;"/>
        <path d="M113.77,108H14.23 C8.6,108,4,103.4,4,97.77V30.28c0-5.63,4.6-10.23,10.23-10.23h99.54c5.63,0,10.23,4.6,10.23,10.23v67.48 C124,103.4,119.4,108,113.77,108z" style="opacity:0.61;fill:none;stroke:#000000;stroke-width:0.2627;stroke-miterlimit:10;"/>
      </g>
      <g>
        <g style="opacity:0.2;">
          <defs>
            <rect id="SVGID_2_" height="128" style="opacity:0.2;" width="128"/>
          </defs>
          <clipPath id="SVGID_3_">
            <use style="overflow:visible;" xlink:href="#SVGID_2_"/>
          </clipPath>
          <g style="clip-path:url(#SVGID_3_);">
            <g>
              <line style="fill:none;stroke:#000000;stroke-width:0.25;stroke-miterlimit:10;" x1="-28" x2="-28" y1="160" y2="-32"/>
              <line style="fill:none;stroke:#000000;stroke-width:0.25;stroke-miterlimit:10;" x1="-24" x2="-24" y1="160" y2="-32"/>
              <line style="fill:none;stroke:#000000;stroke-width:0.25;stroke-miterlimit:10;" x1="-20" x2="-20" y1="160" y2="-32"/>
              <line style="fill:none;stroke:#000000;stroke-width:0.25;stroke-miterlimit:10;" x1="-16" x2="-16" y1="160" y2="-32"/>
              <line style="fill:none;stroke:#000000;stroke-width:0.25;stroke-miterlimit:10;" x1="-12" x2="-12" y1="160" y2="-32"/>
              <line style="fill:none;stroke:#000000;stroke-width:0.25;stroke-miterlimit:10;" x1="-8" x2="-8" y1="160" y2="-32"/>
              <line style="fill:none;stroke:#000000;stroke-width:0.25;stroke-miterlimit:10;" x1="-4" x2="-4" y1="160" y2="-32"/>
              <line style="fill:none;stroke:#000000;stroke-width:0.25;stroke-miterlimit:10;" x1="0" x2="0" y1="160" y2="-32"/>
              <line style="fill:none;stroke:#000000;stroke-width:0.25;stroke-miterlimit:10;" x1="4" x2="4" y1="160" y2="-32"/>
              <line style="fill:none;stroke:#000000;stroke-width:0.25;stroke-miterlimit:10;" x1="8" x2="8" y1="160" y2="-32"/>
              <line style="fill:none;stroke:#000000;stroke-width:0.25;stroke-miterlimit:10;" x1="12" x2="12" y1="160" y2="-32"/>
              <line style="fill:none;stroke:#000000;stroke-width:0.25;stroke-miterlimit:10;" x1="16" x2="16" y1="160" y2="-32"/>
              <line style="fill:none;stroke:#000000;stroke-width:0.25;stroke-miterlimit:10;" x1="20" x2="20" y1="160" y2="-32"/>
              <line style="fill:none;stroke:#000000;stroke-width:0.25;stroke-miterlimit:10;" x1="24" x2="24" y1="160" y2="-32"/>
              <line style="fill:none;stroke:#000000;stroke-width:0.25;stroke-miterlimit:10;" x1="28" x2="28" y1="160" y2="-32"/>
              <line style="fill:none;stroke:#000000;stroke-width:0.25;stroke-miterlimit:10;" x1="32" x2="32" y1="160" y2="-32"/>
              <line style="fill:none;stroke:#000000;stroke-width:0.25;stroke-miterlimit:10;" x1="36" x2="36" y1="160" y2="-32"/>
              <line style="fill:none;stroke:#000000;stroke-width:0.25;stroke-miterlimit:10;" x1="40" x2="40" y1="160" y2="-32"/>
              <line style="fill:none;stroke:#000000;stroke-width:0.25;stroke-miterlimit:10;" x1="44" x2="44" y1="160" y2="-32"/>
              <line style="fill:none;stroke:#000000;stroke-width:0.25;stroke-miterlimit:10;" x1="48" x2="48" y1="160" y2="-32"/>
              <line style="fill:none;stroke:#000000;stroke-width:0.25;stroke-miterlimit:10;" x1="52" x2="52" y1="160" y2="-32"/>
              <line style="fill:none;stroke:#000000;stroke-width:0.25;stroke-miterlimit:10;" x1="56" x2="56" y1="160" y2="-32"/>
              <line style="fill:none;stroke:#000000;stroke-width:0.25;stroke-miterlimit:10;" x1="60" x2="60" y1="160" y2="-32"/>
              <line style="fill:none;stroke:#000000;stroke-width:0.25;stroke-miterlimit:10;" x1="64" x2="64" y1="160" y2="-32"/>
              <line style="fill:none;stroke:#000000;stroke-width:0.25;stroke-miterlimit:10;" x1="68" x2="68" y1="160" y2="-32"/>
              <line style="fill:none;stroke:#000000;stroke-width:0.25;stroke-miterlimit:10;" x1="72" x2="72" y1="160" y2="-32"/>
              <line style="fill:none;stroke:#000000;stroke-width:0.25;stroke-miterlimit:10;" x1="76" x2="76" y1="160" y2="-32"/>
              <line style="fill:none;stroke:#000000;stroke-width:0.25;stroke-miterlimit:10;" x1="80" x2="80" y1="160" y2="-32"/>
              <line style="fill:none;stroke:#000000;stroke-width:0.25;stroke-miterlimit:10;" x1="84" x2="84" y1="160" y2="-32"/>
              <line style="fill:none;stroke:#000000;stroke-width:0.25;stroke-miterlimit:10;" x1="88" x2="88" y1="160" y2="-32"/>
              <line style="fill:none;stroke:#000000;stroke-width:0.25;stroke-miterlimit:10;" x1="92" x2="92" y1="160" y2="-32"/>
              <line style="fill:none;stroke:#000000;stroke-width:0.25;stroke-miterlimit:10;" x1="96" x2="96" y1="160" y2="-32"/>
              <line style="fill:none;stroke:#000000;stroke-width:0.25;stroke-miterlimit:10;" x1="100" x2="100" y1="160" y2="-32"/>
              <line style="fill:none;stroke:#000000;stroke-width:0.25;stroke-miterlimit:10;" x1="104" x2="104" y1="160" y2="-32"/>
              <line style="fill:none;stroke:#000000;stroke-width:0.25;stroke-miterlimit:10;" x1="108" x2="108" y1="160" y2="-32"/>
              <line style="fill:none;stroke:#000000;stroke-width:0.25;stroke-miterlimit:10;" x1="112" x2="112" y1="160" y2="-32"/>
              <line style="fill:none;stroke:#000000;stroke-width:0.25;stroke-miterlimit:10;" x1="116" x2="116" y1="160" y2="-32"/>
              <line style="fill:none;stroke:#000000;stroke-width:0.25;stroke-miterlimit:10;" x1="120" x2="120" y1="160" y2="-32"/>
              <line style="fill:none;stroke:#000000;stroke-width:0.25;stroke-miterlimit:10;" x1="124" x2="124" y1="160" y2="-32"/>
              <line style="fill:none;stroke:#000000;stroke-width:0.25;stroke-miterlimit:10;" x1="128" x2="128" y1="160" y2="-32"/>
              <line style="fill:none;stroke:#000000;stroke-width:0.25;stroke-miterlimit:10;" x1="132" x2="132" y1="160" y2="-32"/>
              <line style="fill:none;stroke:#000000;stroke-width:0.25;stroke-miterlimit:10;" x1="136" x2="136" y1="160" y2="-32"/>
              <line style="fill:none;stroke:#000000;stroke-width:0.25;stroke-miterlimit:10;" x1="137" x2="137" y1="166.05" y2="-25.95"/>
              <line style="fill:none;stroke:#000000;stroke-width:0.25;stroke-miterlimit:10;" x1="144" x2="144" y1="160" y2="-32"/>
              <line style="fill:none;stroke:#000000;stroke-width:0.25;stroke-miterlimit:10;" x1="148" x2="148" y1="160" y2="-32"/>
              <line style="fill:none;stroke:#000000;stroke-width:0.25;stroke-miterlimit:10;" x1="152" x2="152" y1="160" y2="-32"/>
              <line style="fill:none;stroke:#000000;stroke-width:0.25;stroke-miterlimit:10;" x1="156" x2="156" y1="160" y2="-32"/>
            </g>
            <g>
              <line style="fill:none;stroke:#000000;stroke-width:0.25;stroke-miterlimit:10;" x1="-32" x2="160" y1="-28" y2="-28"/>
              <line style="fill:none;stroke:#000000;stroke-width:0.25;stroke-miterlimit:10;" x1="-32" x2="160" y1="-24" y2="-24"/>
              <line style="fill:none;stroke:#000000;stroke-width:0.25;stroke-miterlimit:10;" x1="-32" x2="160" y1="-20" y2="-20"/>
              <line style="fill:none;stroke:#000000;stroke-width:0.25;stroke-miterlimit:10;" x1="-32" x2="160" y1="-16" y2="-16"/>
              <line style="fill:none;stroke:#000000;stroke-width:0.25;stroke-miterlimit:10;" x1="-32" x2="160" y1="-12" y2="-12"/>
              <line style="fill:none;stroke:#000000;stroke-width:0.25;stroke-miterlimit:10;" x1="-32" x2="160" y1="-8" y2="-8"/>
              <line style="fill:none;stroke:#000000;stroke-width:0.25;stroke-miterlimit:10;" x1="-32" x2="160" y1="-4" y2="-4"/>
              <line style="fill:none;stroke:#000000;stroke-width:0.25;stroke-miterlimit:10;" x1="-32" x2="160" y1="0" y2="0"/>
              <line style="fill:none;stroke:#000000;stroke-width:0.25;stroke-miterlimit:10;" x1="-32" x2="160" y1="4" y2="4"/>
              <line style="fill:none;stroke:#000000;stroke-width:0.25;stroke-miterlimit:10;" x1="-32" x2="160" y1="8" y2="8"/>
              <line style="fill:none;stroke:#000000;stroke-width:0.25;stroke-miterlimit:10;" x1="-32" x2="160" y1="12" y2="12"/>
              <line style="fill:none;stroke:#000000;stroke-width:0.25;stroke-miterlimit:10;" x1="-32" x2="160" y1="16" y2="16"/>
              <line style="fill:none;stroke:#000000;stroke-width:0.25;stroke-miterlimit:10;" x1="-32" x2="160" y1="20" y2="20"/>
              <line style="fill:none;stroke:#000000;stroke-width:0.25;stroke-miterlimit:10;" x1="-32" x2="160" y1="24" y2="24"/>
              <line style="fill:none;stroke:#000000;stroke-width:0.25;stroke-miterlimit:10;" x1="-32" x2="160" y1="28" y2="28"/>
              <line style="fill:none;stroke:#000000;stroke-width:0.25;stroke-miterlimit:10;" x1="-32" x2="160" y1="32" y2="32"/>
              <line style="fill:none;stroke:#000000;stroke-width:0.25;stroke-miterlimit:10;" x1="-32" x2="160" y1="36" y2="36"/>
              <line style="fill:none;stroke:#000000;stroke-width:0.25;stroke-miterlimit:10;" x1="-32" x2="160" y1="40" y2="40"/>
              <line style="fill:none;stroke:#000000;stroke-width:0.25;stroke-miterlimit:10;" x1="-32" x2="160" y1="44" y2="44"/>
              <line style="fill:none;stroke:#000000;stroke-width:0.25;stroke-miterlimit:10;" x1="-32" x2="160" y1="48" y2="48"/>
              <line style="fill:none;stroke:#000000;stroke-width:0.25;stroke-miterlimit:10;" x1="-32" x2="160" y1="52" y2="52"/>
              <line style="fill:none;stroke:#000000;stroke-width:0.25;stroke-miterlimit:10;" x1="-32" x2="160" y1="56" y2="56"/>
              <line style="fill:none;stroke:#000000;stroke-width:0.25;stroke-miterlimit:10;" x1="-32" x2="160" y1="60" y2="60"/>
              <line style="fill:none;stroke:#000000;stroke-width:0.25;stroke-miterlimit:10;" x1="-32" x2="160" y1="64" y2="64"/>
              <line style="fill:none;stroke:#000000;stroke-width:0.25;stroke-miterlimit:10;" x1="-32" x2="160" y1="68" y2="68"/>
              <line style="fill:none;stroke:#000000;stroke-width:0.25;stroke-miterlimit:10;" x1="-32" x2="160" y1="72" y2="72"/>
              <line style="fill:none;stroke:#000000;stroke-width:0.25;stroke-miterlimit:10;" x1="-32" x2="160" y1="76" y2="76"/>
              <line style="fill:none;stroke:#000000;stroke-width:0.25;stroke-miterlimit:10;" x1="-32" x2="160" y1="80" y2="80"/>
              <line style="fill:none;stroke:#000000;stroke-width:0.25;stroke-miterlimit:10;" x1="-32" x2="160" y1="84" y2="84"/>
              <line style="fill:none;stroke:#000000;stroke-width:0.25;stroke-miterlimit:10;" x1="-32" x2="160" y1="88" y2="88"/>
              <line style="fill:none;stroke:#000000;stroke-width:0.25;stroke-miterlimit:10;" x1="-32" x2="160" y1="92" y2="92"/>
              <line style="fill:none;stroke:#000000;stroke-width:0.25;stroke-miterlimit:10;" x1="-32" x2="160" y1="96" y2="96"/>
              <line style="fill:none;stroke:#000000;stroke-width:0.25;stroke-miterlimit:10;" x1="-32" x2="160" y1="100" y2="100"/>
              <line style="fill:none;stroke:#000000;stroke-width:0.25;stroke-miterlimit:10;" x1="-32" x2="160" y1="104" y2="104"/>
              <line style="fill:none;stroke:#000000;stroke-width:0.25;stroke-miterlimit:10;" x1="-32" x2="160" y1="108" y2="108"/>
              <line style="fill:none;stroke:#000000;stroke-width:0.25;stroke-miterlimit:10;" x1="-32" x2="160" y1="112" y2="112"/>
              <line style="fill:none;stroke:#000000;stroke-width:0.25;stroke-miterlimit:10;" x1="-32" x2="160" y1="116" y2="116"/>
              <line style="fill:none;stroke:#000000;stroke-width:0.25;stroke-miterlimit:10;" x1="-32" x2="160" y1="120" y2="120"/>
              <line style="fill:none;stroke:#000000;stroke-width:0.25;stroke-miterlimit:10;" x1="-32" x2="160" y1="124" y2="124"/>
              <line style="fill:none;stroke:#000000;stroke-width:0.25;stroke-miterlimit:10;" x1="-32" x2="160" y1="128" y2="128"/>
              <line style="fill:none;stroke:#000000;stroke-width:0.25;stroke-miterlimit:10;" x1="-32" x2="160" y1="132" y2="132"/>
              <line style="fill:none;stroke:#000000;stroke-width:0.25;stroke-miterlimit:10;" x1="-32" x2="160" y1="136" y2="136"/>
              <line style="fill:none;stroke:#000000;stroke-width:0.25;stroke-miterlimit:10;" x1="-32" x2="160" y1="140" y2="140"/>
              <line style="fill:none;stroke:#000000;stroke-width:0.25;stroke-miterlimit:10;" x1="-32" x2="160" y1="144" y2="144"/>
              <line style="fill:none;stroke:#000000;stroke-width:0.25;stroke-miterlimit:10;" x1="-32" x2="160" y1="148" y2="148"/>
              <line style="fill:none;stroke:#000000;stroke-width:0.25;stroke-miterlimit:10;" x1="-32" x2="160" y1="152" y2="152"/>
              <line style="fill:none;stroke:#000000;stroke-width:0.25;stroke-miterlimit:10;" x1="-32" x2="160" y1="156" y2="156"/>
            </g>
            <path d="M159.75-31.75v191.5h-191.5v-191.5H159.75 M160-32H-32v192h192V-32L160-32z"/>
          </g>
        </g>
        <g>
          <rect height="128" style="opacity:0.3;fill:#F44336;" width="4"/>
          <rect height="128" style="opacity:0.3;fill:#F44336;" width="4" x="124"/>
          <rect height="120" style="opacity:0.3;fill:#F44336;" transform="matrix(-1.836970e-16 1 -1 -1.836970e-16 66 -62)" width="4" x="62" y="-58"/>
          <rect height="120" style="opacity:0.3;fill:#F44336;" transform="matrix(-1.836970e-16 1 -1 -1.836970e-16 190 62)" width="4" x="62" y="66"/>
        </g>
      </g>
    </g>
  </g>
</svg>
